icons/vector.svg

<svg width="24" height="24" viewBox="0 0 24 24" fill="none" xmlns="http://www.w3.org/2000/svg">
<path fill-rule="evenodd" clip-rule="evenodd" d="M2.29288 2.29291C2.53922 2.04658 2.89599 1.9462 3.23463 2.02794L16.2846 5.17794C16.6631 5.2693 16.9542 5.57208 17.0306 5.9539L18.0463 11.0326C18.3785 10.9458 18.7467 11.0326 19.0071 11.2929L21.7071 13.9929C21.8946 14.1804 22 14.4348 22 14.7C22 14.9652 21.8946 15.2196 21.7071 15.4071L15.4071 21.7071C15.2196 21.8947 14.9652 22 14.7 22C14.4348 22 14.1804 21.8947 13.9929 21.7071L11.2929 19.0071C11.0325 18.7468 10.9457 18.3786 11.0325 18.0463L5.95387 17.0306C5.57205 16.9542 5.26927 16.6632 5.17791 16.2847L2.02791 3.23466C1.94617 2.89602 2.04655 2.53925 2.29288 2.29291ZM12.5713 16.3145L16.3145 12.5713L15.1946 6.97228L6.22022 4.80604L10.5345 9.12031C10.925 9.51084 10.925 10.144 10.5345 10.5345C10.144 10.9251 9.51081 10.9251 9.12028 10.5345L4.80601 6.22025L6.97224 15.1947L12.5713 16.3145ZM13.4142 18.3L14.7 19.5858L19.5858 14.7L18.3 13.4142L13.4142 18.3Z" fill="black"/>
</svg>

<svg
  width="24"
  height="24"
  viewBox="0 0 24 24"
  xmlns="http://www.w3.org/2000/svg"
>
  <path
    fill-rule="evenodd"
    clip-rule="evenodd"
    d="M2.293 2.293a1 1 0 0 1 .942-.265l13.05 3.15a1 1 0 0 1 .746.776l1.015 5.079a1 1 0 0 1 .961.26l2.7 2.7a1 1 0 0 1 0 1.414l-6.3 6.3a1 1 0 0 1-1.414 0l-2.7-2.7a1 1 0 0 1-.26-.96l-5.08-1.016a1 1 0 0 1-.775-.746l-3.15-13.05a1 1 0 0 1 .265-.942zM12.57 16.314l3.743-3.743-1.12-5.599L6.22 4.806l4.314 4.314a1 1 0 0 1-1.414 1.415L4.806 6.22l2.166 8.975 5.6 1.12zm.843 1.986l1.286 1.286 4.886-4.886-1.286-1.286-4.886 4.886z"
  />
</svg>
